**harm	**harte	**timestamp	**phrase	**leadinstrument	**kern
*M4/4	*M4/4	*	*	*	*
*A-:	*A-:	*	*	*	*A-:
1r;	N	0	.	r	1r;
=1	=1	=1	=1	=1	=1
*>A_verse	*>A_verse	*>A_verse	*>A_verse	*>A_verse	*>A_verse
1i	A-:min	0.255	newline	guitar	1A- 1cc- 1ee-
=2	=2	=2	=2	=2	=2
1IV	D-:maj	2.022	.	guitar	1D- 1f 1a-
=3	=3	=3	=3	=3	=3
1V7	E-:7	3.789	.	guitar	1E- 1g 1b- 1dd-
=4	=4	=4	=4	=4	=4
1V7	E-:7	5.556	.	guitar	1E- 1g 1b- 1dd-
=5	=5	=5	=5	=5	=5
1i	A-:min	7.323	newline	guitar	1A- 1cc- 1ee-
=6	=6	=6	=6	=6	=6
1IV	D-:maj	9.069	.	guitar	1D- 1f 1a-
=7	=7	=7	=7	=7	=7
1V7	E-:7	10.814	.	guitar	1E- 1g 1b- 1dd-
=8	=8	=8	=8	=8	=8
1V7	E-:7	12.56	.	guitar	1E- 1g 1b- 1dd-
=9	=9	=9	=9	=9	=9
1i	A-:min	14.306	newline	guitar	1A- 1cc- 1ee-
=10	=10	=10	=10	=10	=10
1IV	D-:maj	16.061	.	guitar	1D- 1f 1a-
=11	=11	=11	=11	=11	=11
1V7	E-:7	17.817	.	guitar	1E- 1g 1b- 1dd-
=12	=12	=12	=12	=12	=12
1V7	E-:7	19.573	.	guitar	1E- 1g 1b- 1dd-
=13	=13	=13	=13	=13	=13
1i	A-:min	21.328	newline	guitar	1A- 1cc- 1ee-
=14	=14	=14	=14	=14	=14
1IV	D-:maj	23.102	.	guitar	1D- 1f 1a-
=15	=15	=15	=15	=15	=15
1V7	E-:7	24.876	.	guitar	1E- 1g 1b- 1dd-
=16	=16	=16	=16	=16	=16
1V7	E-:7	26.65	.	guitar	1E- 1g 1b- 1dd-
=17	=17	=17	=17	=17	=17
*>A_verse	*>A_verse	*>A_verse	*>A_verse	*>A_verse	*>A_verse
1i	A-:min	28.424	newline	voice	1A- 1cc- 1ee-
=18	=18	=18	=18	=18	=18
1IV	D-:maj	30.2	.	voice	1D- 1f 1a-
=19	=19	=19	=19	=19	=19
1V7	E-:7	31.977	.	voice	1E- 1g 1b- 1dd-
=20	=20	=20	=20	=20	=20
1V7	E-:7	33.753	.	voice	1E- 1g 1b- 1dd-
=21	=21	=21	=21	=21	=21
1i	A-:min	35.529	newline	voice	1A- 1cc- 1ee-
=22	=22	=22	=22	=22	=22
1IV	D-:maj	37.288	.	voice	1D- 1f 1a-
=23	=23	=23	=23	=23	=23
1V7	E-:7	39.046	.	voice	1E- 1g 1b- 1dd-
=24	=24	=24	=24	=24	=24
1V7	E-:7	40.805	.	voice	1E- 1g 1b- 1dd-
=25	=25	=25	=25	=25	=25
1i	A-:min	42.563	newline	voice	1A- 1cc- 1ee-
=26	=26	=26	=26	=26	=26
1IV	D-:maj	44.326	.	voice	1D- 1f 1a-
=27	=27	=27	=27	=27	=27
1V7	E-:7	46.09	.	voice	1E- 1g 1b- 1dd-
=28	=28	=28	=28	=28	=28
1V7	E-:7	47.853	.	voice	1E- 1g 1b- 1dd-
=29	=29	=29	=29	=29	=29
1i	A-:min	49.616	newline	voice	1A- 1cc- 1ee-
=30	=30	=30	=30	=30	=30
1IV	D-:maj	51.366	.	voice	1D- 1f 1a-
=31	=31	=31	=31	=31	=31
1V7	E-:7	53.116	.	voice	1E- 1g 1b- 1dd-
=32	=32	=32	=32	=32	=32
1V7	E-:7	54.866	.	voice	1E- 1g 1b- 1dd-
=33	=33	=33	=33	=33	=33
*>B_chorus	*>B_chorus	*>B_chorus	*>B_chorus	*>B_chorus	*>B_chorus
1-III	B:maj	56.616	newline	voice	1C- 1e- 1g-
=34	=34	=34	=34	=34	=34
1IV	D-:maj	58.377	.	voice	1D- 1f 1a-
=35	=35	=35	=35	=35	=35
2i	A-:min	60.138	.	voice	2A- 2cc- 2ee-
2vii	G:min	61.018	.	voice	2G 2b- 2dd
=36	=36	=36	=36	=36	=36
2i	A-:min	61.899	.	voice	2A- 2cc- 2ee-
2vii	G:min	62.779	.	voice	2G 2b- 2dd
=37	=37	=37	=37	=37	=37
1-III	B:maj	63.66	newline	voice	1C- 1e- 1g-
=38	=38	=38	=38	=38	=38
1IV	D-:maj	65.424	.	voice	1D- 1f 1a-
=39	=39	=39	=39	=39	=39
2i	A-:min	67.189	.	voice	2A- 2cc- 2ee-
2vii	G:min	68.072	.	voice	2G 2b- 2dd
=40	=40	=40	=40	=40	=40
*M2/4	*M2/4	*M2/4	*M2/4	*M2/4	*M2/4
2i	A-:min	68.954	.	voice	2A- 2cc- 2ee-
=41	=41	=41	=41	=41	=41
*M4/4	*M4/4	*M4/4	*M4/4	*M4/4	*M4/4
1IV	D-:maj	69.837	.	voice	1D- 1f 1a-
=42	=42	=42	=42	=42	=42
1V	E-:maj	71.602	newline	voice	1E- 1g 1b-
=43	=43	=43	=43	=43	=43
1V	E-:maj	73.424	.	voice	1E- 1g 1b-
=44	=44	=44	=44	=44	=44
*>A_verse	*>A_verse	*>A_verse	*>A_verse	*>A_verse	*>A_verse
1i	A-:min	75.245	newline	voice	1A- 1cc- 1ee-
=45	=45	=45	=45	=45	=45
1IV	D-:maj	77.002	.	voice	1D- 1f 1a-
=46	=46	=46	=46	=46	=46
1V7	E-:7	78.759	.	voice	1E- 1g 1b- 1dd-
=47	=47	=47	=47	=47	=47
1V7	E-:7	80.516	.	voice	1E- 1g 1b- 1dd-
=48	=48	=48	=48	=48	=48
1i	A-:min	82.273	newline	voice	1A- 1cc- 1ee-
=49	=49	=49	=49	=49	=49
1IV	D-:maj	84.02	.	voice	1D- 1f 1a-
=50	=50	=50	=50	=50	=50
1V7	E-:7	85.767	.	voice	1E- 1g 1b- 1dd-
=51	=51	=51	=51	=51	=51
1V7	E-:7	87.514	.	voice	1E- 1g 1b- 1dd-
=52	=52	=52	=52	=52	=52
1i	A-:min	89.261	newline	voice	1A- 1cc- 1ee-
=53	=53	=53	=53	=53	=53
1IV	D-:maj	91.037	.	voice	1D- 1f 1a-
=54	=54	=54	=54	=54	=54
1V7	E-:7	92.813	.	voice	1E- 1g 1b- 1dd-
=55	=55	=55	=55	=55	=55
1V7	E-:7	94.59	.	voice	1E- 1g 1b- 1dd-
=56	=56	=56	=56	=56	=56
1i	A-:min	96.366	newline	voice	1A- 1cc- 1ee-
=57	=57	=57	=57	=57	=57
1IV	D-:maj	98.124	.	voice	1D- 1f 1a-
=58	=58	=58	=58	=58	=58
1V7	E-:7	99.883	.	voice	1E- 1g 1b- 1dd-
=59	=59	=59	=59	=59	=59
1V7	E-:7	101.641	.	voice	1E- 1g 1b- 1dd-
=60	=60	=60	=60	=60	=60
*>A_verse	*>A_verse	*>A_verse	*>A_verse	*>A_verse	*>A_verse
1i	A-:min	103.4	newline	guitar	1A- 1cc- 1ee-
=61	=61	=61	=61	=61	=61
1IV	D-:maj	105.175	.	guitar	1D- 1f 1a-
=62	=62	=62	=62	=62	=62
1V7	E-:7	106.95	.	guitar	1E- 1g 1b- 1dd-
=63	=63	=63	=63	=63	=63
1V7	E-:7	108.725	.	guitar	1E- 1g 1b- 1dd-
=64	=64	=64	=64	=64	=64
1i	A-:min	110.5	newline	guitar	1A- 1cc- 1ee-
=65	=65	=65	=65	=65	=65
1IV	D-:maj	112.276	.	guitar	1D- 1f 1a-
=66	=66	=66	=66	=66	=66
1V7	E-:7	114.053	.	guitar	1E- 1g 1b- 1dd-
=67	=67	=67	=67	=67	=67
1V7	E-:7	115.829	.	guitar	1E- 1g 1b- 1dd-
=68	=68	=68	=68	=68	=68
1i	A-:min	117.606	newline	voice	1A- 1cc- 1ee-
=69	=69	=69	=69	=69	=69
1IV	D-:maj	119.366	.	voice	1D- 1f 1a-
=70	=70	=70	=70	=70	=70
1V7	E-:7	121.126	.	voice	1E- 1g 1b- 1dd-
=71	=71	=71	=71	=71	=71
1V7	E-:7	122.886	.	voice	1E- 1g 1b- 1dd-
=72	=72	=72	=72	=72	=72
1i	A-:min	124.646	newline	voice	1A- 1cc- 1ee-
=73	=73	=73	=73	=73	=73
1IV	D-:maj	126.418	.	voice	1D- 1f 1a-
=74	=74	=74	=74	=74	=74
1V7	E-:7	128.191	.	voice	1E- 1g 1b- 1dd-
=75	=75	=75	=75	=75	=75
1V7	E-:7	129.964	.	voice	1E- 1g 1b- 1dd-
=76	=76	=76	=76	=76	=76
*>B_chorus	*>B_chorus	*>B_chorus	*>B_chorus	*>B_chorus	*>B_chorus
1-III	B:maj	131.737	newline	voice	1C- 1e- 1g-
=77	=77	=77	=77	=77	=77
1IV	D-:maj	133.517	.	voice	1D- 1f 1a-
=78	=78	=78	=78	=78	=78
2i	A-:min	135.297	.	voice	2A- 2cc- 2ee-
2vii	G:min	136.187	.	voice	2G 2b- 2dd
=79	=79	=79	=79	=79	=79
2i	A-:min	137.078	.	voice	2A- 2cc- 2ee-
2vii	G:min	137.968	.	voice	2G 2b- 2dd
=80	=80	=80	=80	=80	=80
1-III	B:maj	138.858	newline	voice	1C- 1e- 1g-
=81	=81	=81	=81	=81	=81
1IV	D-:maj	140.631	.	voice	1D- 1f 1a-
=82	=82	=82	=82	=82	=82
2i	A-:min	142.405	.	voice	2A- 2cc- 2ee-
2vii	G:min	143.292	.	voice	2G 2b- 2dd
=83	=83	=83	=83	=83	=83
*M2/4	*M2/4	*M2/4	*M2/4	*M2/4	*M2/4
2i	A-:min	144.178	.	voice	2A- 2cc- 2ee-
=84	=84	=84	=84	=84	=84
*M4/4	*M4/4	*M4/4	*M4/4	*M4/4	*M4/4
1IV	D-:maj	145.065	.	voice	1D- 1f 1a-
=85	=85	=85	=85	=85	=85
1V	E-:maj	146.838	newline	voice	1E- 1g 1b-
=86	=86	=86	=86	=86	=86
1V	E-:maj	148.654	.	voice	1E- 1g 1b-
=87	=87	=87	=87	=87	=87
*>A_verse	*>A_verse	*>A_verse	*>A_verse	*>A_verse	*>A_verse
1i	A-:min	150.469	newline	guitar	1A- 1cc- 1ee-
=88	=88	=88	=88	=88	=88
1IV	D-:maj	152.249	.	guitar	1D- 1f 1a-
=89	=89	=89	=89	=89	=89
1V7	E-:7	154.03	.	guitar	1E- 1g 1b- 1dd-
=90	=90	=90	=90	=90	=90
1V7	E-:7	155.81	.	guitar	1E- 1g 1b- 1dd-
=91	=91	=91	=91	=91	=91
*>_fadeout	*>_fadeout	*>_fadeout	*>_fadeout	*>_fadeout	*>_fadeout
1i	A-:min	157.59	newline	guitar	1A- 1cc- 1ee-
=92	=92	=92	=92	=92	=92
1IV	D-:maj	159.366	.	guitar	1D- 1f 1a-
=93	=93	=93	=93	=93	=93
1V7	E-:7	161.142	.	guitar	1E- 1g 1b- 1dd-
=94	=94	=94	=94	=94	=94
1V7	E-:7	162.918	.	guitar	1E- 1g 1b- 1dd-
=95	=95	=95	=95	=95	=95
1i	A-:min	164.694	newline	guitar	1A- 1cc- 1ee-
=96	=96	=96	=96	=96	=96
1IV	D-:maj	166.106	.	guitar	1D- 1f 1a-
=97	=97	=97	=97	=97	=97
1V7	E-:7	167.518	.	guitar	1E- 1g 1b- 1dd-
=98	=98	=98	=98	=98	=98
1V7	E-:7	168.93	.	guitar	1E- 1g 1b- 1dd-
1r;	N	170.342	.	r	1r;
1r;	N	171.781	.	r	1r;
*-	*-	*-	*-	*-	*-
!!!OTL: The People In Me
!!!COC: The Music Machine
!!!BillboardChartDate: 1967/01/28
!!!BillboardPeak: 66
!!!BillboardWeeksOnChart: 8
!!!SampleTargetRank: 99
!!!SampleActualRank: 100
!!!SampleID#: 0643
!!!RDF**harmony: **recip + pitch class of root + harmonic quality
!!!RDF**harte: Chris Harte's syntax, used by MIREX
!!!RDF**phrase: newline = linebreak in original McGill transcription
!!!RDF**timestamp: McGill audio timestamp in seconds
!!!RDF**leadinstrument: original McGill primary instrumentation annotation
!!!RDT: 2017/01/12/
!!!ENC: Nathaniel Condit-Schultz
!!!EST: Awating manual error checking and editing.
